;Generated with Cura_SteamEngine 15.01
; Default start code
G28 ; Home extruder
G1 Z15 F100
M107 ; Turn off fan
G90 ; Absolute positioning
M82 ; Extruder in absolute mode
M190 S50
; Activate all used extruder
M104 T0 S210
G92 E0 ; Reset extruder position
; Wait for all used extruders to reach temperature
M109 T0 S210
;Layer count: 162
;LAYER:0
M107
G0 F9000 X14.300 Y52.603 Z0.500
;TYPE:SKIRT
G1 F1800 X20.991 Y52.603 E0.55636
G1 X22.565 Y52.604 E0.68724
G1 X26.055 Y52.603 E0.97743
G1 X27.630 Y52.604 E1.10839
G1 X31.120 Y52.603 E1.39859
G1 X32.694 Y52.604 E1.52947
G1 X36.184 Y52.603 E1.81966
G1 X37.759 Y52.604 E1.95062
G1 X41.249 Y52.603 E2.24082
G1 X42.823 Y52.604 E2.37170
G1 X46.313 Y52.603 E2.66189
G1 X47.888 Y52.604 E2.79285
G1 X51.378 Y52.603 E3.08305
G1 X52.952 Y52.604 E3.21393
G1 X56.442 Y52.603 E3.50412
G1 X58.017 Y52.604 E3.63508
G1 X61.507 Y52.603 E3.92528
G1 X63.081 Y52.604 E4.05616
G1 X66.571 Y52.603 E4.34635
G1 X68.146 Y52.604 E4.47731
G1 X71.636 Y52.603 E4.76751
G1 X73.210 Y52.604 E4.89839
G1 X76.700 Y52.603 E5.18858
G1 X78.275 Y52.604 E5.31954
G1 X81.765 Y52.603 E5.60974
G1 X83.339 Y52.604 E5.74062
G1 X86.829 Y52.603 E6.03081
G1 X88.404 Y52.604 E6.16177
G1 X91.894 Y52.603 E6.45197
G1 X93.468 Y52.604 E6.58285
G1 X96.958 Y52.603 E6.87304
G1 X98.533 Y52.604 E7.00400
G1 X102.023 Y52.603 E7.29420
G1 X103.597 Y52.604 E7.42508
G1 X107.087 Y52.603 E7.71527
G1 X108.662 Y52.604 E7.84623
G1 X112.152 Y52.603 E8.13643
G1 X113.726 Y52.604 E8.26731
G1 X117.216 Y52.603 E8.55750
G1 X118.791 Y52.604 E8.68846
G1 X122.281 Y52.603 E8.97866
G1 X123.855 Y52.604 E9.10954
G1 X127.345 Y52.603 E9.39973
G1 X128.920 Y52.604 E9.53069
G1 X132.410 Y52.603 E9.82089
G1 X133.984 Y52.604 E9.95177
G1 X137.474 Y52.603 E10.24196
G1 X139.049 Y52.604 E10.37292
G1 X142.539 Y52.603 E10.66312
G1 X144.113 Y52.604 E10.79400
G1 X147.603 Y52.603 E11.08419
G1 X149.178 Y52.604 E11.21515
G1 X152.668 Y52.603 E11.50535
G1 X154.242 Y52.604 E11.63623
G1 X157.732 Y52.603 E11.92642
G1 X159.307 Y52.604 E12.05738
G1 X162.797 Y52.603 E12.34758
G1 X164.371 Y52.604 E12.47846
G1 X167.861 Y52.603 E12.76865
G1 X169.436 Y52.604 E12.89961
G1 X172.926 Y52.603 E13.18981
G1 X174.574 Y52.604 E13.32684
G1 X175.342 Y52.639 E13.39076
G1 X176.362 Y52.767 E13.47624
G1 X177.199 Y52.963 E13.54772
G1 X178.171 Y53.269 E13.63245
G1 X178.964 Y53.613 E13.70433
G1 X179.865 Y54.092 E13.78918
G1 X180.530 Y54.535 E13.85562
G1 X180.929 Y54.827 E13.89673
G1 X181.554 Y55.365 E13.96530
G1 X182.275 Y56.091 E14.05038
G1 X182.817 Y56.765 E14.12230
G1 X183.391 Y57.607 E14.20703
G1 X183.802 Y58.361 E14.27843
G1 X184.218 Y59.296 E14.36353
G1 X184.486 Y60.115 E14.43518
G1 X184.727 Y61.111 E14.52039
G1 X184.834 Y61.905 E14.58701
G1 X184.881 Y62.409 E14.62910
G1 X184.896 Y66.394 E14.96045
G1 X184.895 Y67.935 E15.08859
G1 X184.896 Y71.333 E15.37113
G1 X184.895 Y72.868 E15.49877
G1 X184.896 Y76.267 E15.78140
G1 X184.895 Y77.802 E15.90903
G1 X184.896 Y81.200 E16.19158
G1 X184.895 Y82.735 E16.31921
G1 X184.896 Y86.133 E16.60176
G1 X184.895 Y87.668 E16.72939
G1 X184.896 Y91.066 E17.01194
G1 X184.895 Y92.601 E17.13957
G1 X184.896 Y96.000 E17.42220
G1 X184.895 Y97.535 E17.54984
G1 X184.896 Y100.933 E17.83238
G1 X184.895 Y102.468 E17.96002
G1 X184.896 Y105.867 E18.24265
G1 X184.895 Y107.402 E18.37028
G1 X184.896 Y110.800 E18.65283
G1 X184.895 Y112.335 E18.78046
G1 X184.896 Y115.733 E19.06301
G1 X184.895 Y117.268 E19.19064
G1 X184.896 Y120.666 E19.47319
G1 X184.895 Y122.201 E19.60082
G1 X184.896 Y125.600 E19.88345
G1 X184.895 Y127.135 E20.01109
G1 X184.896 Y130.533 E20.29363
G1 X184.895 Y132.068 E20.42127
G1 X184.896 Y135.467 E20.70390
G1 X184.895 Y137.074 E20.83752
G1 X184.860 Y137.842 E20.90145
G1 X184.732 Y138.862 E20.98692
G1 X184.536 Y139.699 E21.05840
G1 X184.230 Y140.671 E21.14314
G1 X183.886 Y141.464 E21.21501
G1 X183.407 Y142.365 E21.29986
G1 X182.962 Y143.032 E21.36653
G1 X182.688 Y143.407 E21.40515
G1 X182.268 Y143.913 E21.45983
G1 X181.694 Y144.503 E21.52827
G1 X180.926 Y145.177 E21.61324
G1 X180.223 Y145.676 E21.68492
G1 X179.347 Y146.201 E21.76984
G1 X178.621 Y146.540 E21.83646
G1 X178.168 Y146.729 E21.87728
G1 X177.384 Y146.986 E21.94588
G1 X176.388 Y147.227 E22.03109
G1 X175.594 Y147.334 E22.09771
G1 X175.090 Y147.381 E22.13980
G1 X171.015 Y147.396 E22.47864
G1 X169.434 Y147.395 E22.61010
G1 X165.944 Y147.396 E22.90029
G1 X164.369 Y147.395 E23.03125
G1 X160.879 Y147.396 E23.32145
G1 X159.305 Y147.395 E23.45233
G1 X155.815 Y147.396 E23.74252
G1 X154.240 Y147.395 E23.87348
G1 X150.750 Y147.396 E24.16368
G1 X149.176 Y147.395 E24.29456
G1 X145.686 Y147.396 E24.58475
G1 X144.111 Y147.395 E24.71571
G1 X140.621 Y147.396 E25.00591
G1 X139.047 Y147.395 E25.13679
G1 X135.557 Y147.396 E25.42698
G1 X133.982 Y147.395 E25.55794
G1 X130.492 Y147.396 E25.84814
G1 X128.918 Y147.395 E25.97902
G1 X125.428 Y147.396 E26.26921
G1 X123.853 Y147.395 E26.40017
G1 X120.363 Y147.396 E26.69037
G1 X118.789 Y147.395 E26.82125
G1 X115.299 Y147.396 E27.11144
G1 X113.724 Y147.395 E27.24240
G1 X110.234 Y147.396 E27.53260
G1 X108.660 Y147.395 E27.66348
G1 X105.170 Y147.396 E27.95367
G1 X103.595 Y147.395 E28.08463
G1 X100.105 Y147.396 E28.37483
G1 X98.531 Y147.395 E28.50571
G1 X95.041 Y147.396 E28.79590
G1 X93.466 Y147.395 E28.92686
G1 X89.976 Y147.396 E29.21706
G1 X88.402 Y147.395 E29.34794
G1 X84.912 Y147.396 E29.63813
G1 X83.337 Y147.395 E29.76909
G1 X79.847 Y147.396 E30.05929
G1 X78.273 Y147.395 E30.19017
G1 X74.783 Y147.396 E30.48036
G1 X73.208 Y147.395 E30.61132
G1 X69.718 Y147.396 E30.90152
G1 X68.144 Y147.395 E31.03240
G1 X64.654 Y147.396 E31.32259
G1 X63.079 Y147.395 E31.45355
G1 X59.589 Y147.396 E31.74375
G1 X58.015 Y147.395 E31.87463
G1 X54.525 Y147.396 E32.16482
G1 X52.950 Y147.395 E32.29578
G1 X49.460 Y147.396 E32.58598
G1 X47.886 Y147.395 E32.71686
G1 X44.396 Y147.396 E33.00705
G1 X42.821 Y147.395 E33.13801
G1 X39.331 Y147.396 E33.42821
G1 X37.757 Y147.395 E33.55909
G1 X34.267 Y147.396 E33.84928
G1 X32.692 Y147.395 E33.98024
G1 X29.202 Y147.396 E34.27044
G1 X27.628 Y147.395 E34.40132
G1 X24.138 Y147.396 E34.69151
G1 X22.563 Y147.395 E34.82247
G1 X19.073 Y147.396 E35.11267
G1 X14.300 Y147.393 E35.50954
G1 X14.300 Y52.603 E43.39136
G1 F2400 E39.39136
G0 F9000 X17.700 Y56.003
;TYPE:WALL-OUTER
G1 F2400 E43.39136
G1 F1800 X174.491 Y56.004 E56.42859
G1 X175.061 Y56.030 E56.47603
G1 X175.754 Y56.117 E56.53411
G1 X176.302 Y56.245 E56.58090
G1 X176.977 Y56.458 E56.63976
G1 X177.490 Y56.680 E56.68623
G1 X178.125 Y57.018 E56.74605
G1 X178.579 Y57.321 E56.79143
G1 X178.811 Y57.490 E56.81530
G1 X179.240 Y57.860 E56.86241
G1 X179.738 Y58.362 E56.92120
G1 X180.084 Y58.791 E56.96703
G1 X180.483 Y59.377 E57.02598
G1 X180.754 Y59.875 E57.07312
G1 X181.042 Y60.522 E57.13201
G1 X181.216 Y61.053 E57.17847
G1 X181.381 Y61.737 E57.23698
G1 X181.455 Y62.287 E57.28312
G1 X181.482 Y62.573 E57.30701
G1 X181.495 Y136.991 E63.49489
G1 X181.469 Y137.561 E63.54234
G1 X181.383 Y138.251 E63.60016
G1 X181.254 Y138.802 E63.64721
G1 X181.041 Y139.477 E63.70607
G1 X180.819 Y139.990 E63.75254
G1 X180.481 Y140.625 E63.81236
G1 X180.179 Y141.079 E63.85770
G1 X179.732 Y141.644 E63.91760
G1 X179.356 Y142.031 E63.96247
G1 X178.816 Y142.505 E64.02221
G1 X178.369 Y142.823 E64.06783
G1 X177.745 Y143.196 E64.12828
G1 X177.249 Y143.428 E64.17381
G1 X176.975 Y143.543 E64.19852
G1 X176.450 Y143.715 E64.24445
G1 X175.762 Y143.881 E64.30330
G1 X175.210 Y143.955 E64.34961
G1 X174.926 Y143.982 E64.37333
G1 X17.700 Y143.995 E77.44673
G1 X17.700 Y56.003 E84.76329
G0 F9000 X17.910 Y56.303
G0 X71.452 Y84.674
G0 X71.717 Y84.535
G1 F1800 X75.121 Y90.971 E85.36869
G1 X74.504 Y91.307 E85.42711
G1 X74.056 Y91.642 E85.47362
G1 X73.618 Y92.073 E85.52472
G1 X73.377 Y92.340 E85.55463
G1 X73.103 Y92.793 E85.59865
G1 X72.767 Y93.540 E85.66675
G1 X77.195 Y93.540 E86.03494
G1 X77.294 Y93.434 E86.04700
G1 X77.745 Y93.183 E86.08992
G1 X77.909 Y93.121 E86.10450
G1 X78.257 Y93.059 E86.13389
G1 X80.060 Y93.035 E86.28383
G1 X80.077 Y93.035 E86.28524
G1 X80.077 Y93.540 E86.32723
G1 X84.227 Y93.540 E86.67230
G1 X84.227 Y84.535 E87.42107
G1 X80.077 Y84.535 E87.76615
G1 X80.077 Y90.128 E88.23121
G1 X78.987 Y90.128 E88.32184
G1 X76.223 Y84.535 E88.84059
G1 X71.717 Y84.535 E89.21527
G0 F9000 X71.452 Y84.674
G0 X72.301 Y93.851
G0 X72.679 Y94.840
G0 X72.679 Y95.140
G1 F1800 X72.702 Y95.948 E89.28248
G1 X72.735 Y96.291 E89.31113
G1 X72.815 Y96.731 E89.34832
G1 X72.907 Y97.025 E89.37393
G1 X73.098 Y97.433 E89.41139
G1 X73.387 Y97.923 E89.45869
G1 X73.812 Y98.393 E89.51138
G1 X74.277 Y98.807 E89.56315
G1 X74.577 Y99.008 E89.59318
G1 X75.087 Y99.276 E89.64108
G1 X75.416 Y99.429 E89.67125
G1 X76.036 Y99.622 E89.72525
G1 X76.496 Y99.748 E89.76490
G1 X77.183 Y99.865 E89.82285
G1 X78.245 Y99.930 E89.91132
G1 X84.227 Y99.935 E90.40873
G1 X84.227 Y95.140 E90.80743
G1 X80.077 Y95.140 E91.15251
G1 X80.077 Y97.028 E91.30949
G1 X78.836 Y97.028 E91.41268
G1 X78.287 Y97.007 E91.45837
G1 X77.896 Y96.940 E91.49135
G1 X77.745 Y96.884 E91.50474
G1 X77.294 Y96.625 E91.54799
G1 X77.084 Y96.370 E91.57546
G1 X76.934 Y96.102 E91.60099
G1 X76.889 Y95.948 E91.61433
G1 X76.863 Y95.795 E91.62724
G1 X76.835 Y95.449 E91.65610
G1 X76.835 Y95.140 E91.68180
G1 X72.679 Y95.140 E92.02737
G0 F9000 X72.679 Y94.840
G0 X77.176 Y94.799
G0 X84.568 Y94.799
G0 X86.870 Y96.535
G0 X86.870 Y96.835
G1 F1800 X86.870 Y99.935 E92.28514
G1 X96.613 Y99.935 E93.09527
G1 X96.613 Y84.535 E94.37578
G1 X86.870 Y84.535 E95.18592
G1 X86.870 Y87.699 E95.44901
G1 X92.463 Y87.699 E95.91407
G1 X92.463 Y90.792 E96.17125
G1 X87.320 Y90.792 E96.59889
G1 X87.320 Y93.870 E96.85483
G1 X92.463 Y93.870 E97.28247
G1 X92.463 Y96.835 E97.52901
G1 X86.870 Y96.835 E97.99407
G0 F9000 X86.870 Y96.535
G0 X86.529 Y96.494
G0 X86.529 Y100.276
G0 X96.954 Y100.276
G0 X98.417 Y99.844
G0 X98.686 Y99.712
G1 F1800 X98.796 Y99.935 E98.01475
G1 X102.855 Y99.935 E98.35225
G1 X107.077 Y94.372 E98.93295
G1 X107.077 Y99.935 E99.39552
G1 X111.013 Y99.935 E99.72280
G1 X111.013 Y84.535 E101.00331
G1 X107.077 Y84.535 E101.33059
G1 X107.077 Y89.422 E101.73695
G1 X106.454 Y90.206 E101.82021
G1 X102.540 Y84.535 E102.39317
G1 X98.113 Y84.535 E102.76127
G1 X98.001 Y84.751 E102.78150
G1 X103.837 Y93.023 E103.62327
G1 X98.686 Y99.712 E104.32527
G0 F9000 X98.417 Y99.844
G0 X98.566 Y100.304
G0 X103.043 Y100.314
G0 X111.354 Y100.276
G0 X114.901 Y93.627
G0 X115.187 Y93.540
G1 F1800 X119.074 Y93.540 E104.64847
G1 X118.460 Y90.999 E104.86584
G1 X121.039 Y90.999 E105.08029
G1 X120.441 Y93.540 E105.29734
G1 X124.234 Y93.540 E105.61273
G1 X126.807 Y84.535 E106.39147
G1 X122.658 Y84.535 E106.73646
G1 X121.822 Y87.813 E107.01775
G1 X117.629 Y87.813 E107.36640
G1 X116.708 Y84.535 E107.64952
G1 X112.473 Y84.535 E108.00166
G1 X115.187 Y93.540 E108.78370
G0 F9000 X114.901 Y93.627
G0 X115.669 Y94.840
G0 X115.669 Y95.140
G1 F1800 X117.114 Y99.935 E109.20011
G1 X122.407 Y99.935 E109.64023
G1 X123.777 Y95.140 E110.05489
G1 X120.066 Y95.140 E110.36346
G1 X119.767 Y96.407 E110.47170
G1 X119.462 Y95.140 E110.58007
G1 X115.669 Y95.140 E110.89546
G0 F9000 X115.669 Y94.840
G0 X115.240 Y94.821
G0 X116.847 Y100.295
G0 X122.678 Y100.294
G0 X127.949 Y99.935
G0 X128.249 Y99.935
G1 F1800 X133.145 Y99.935 E111.30256
G1 X133.249 Y99.692 E111.32454
G1 X133.218 Y99.660 E111.32824
G1 X135.987 Y90.801 E112.10002
G1 X138.693 Y99.935 E112.89214
G1 X143.756 Y99.935 E113.31313
G1 X143.756 Y84.535 E114.59364
G1 X140.013 Y84.535 E114.90488
G1 X140.013 Y93.217 E115.62679
G1 X138.004 Y86.678 E116.19559
G1 X134.142 Y86.678 E116.51672
G1 X134.041 Y86.929 E116.53921
G1 X134.071 Y86.958 E116.54268
G1 X132.185 Y93.020 E117.07057
G1 X132.185 Y84.535 E117.77610
G1 X128.249 Y84.535 E118.10338
G1 X128.249 Y99.935 E119.38390
G0 F9000 X127.949 Y99.935
G0 X127.908 Y100.276
G0 X155.740 Y121.525
G0 X155.982 Y121.700
G1 F1800 X155.557 Y122.296 E119.44477
G1 X155.343 Y122.689 E119.48197
G1 X155.061 Y123.370 E119.54326
G1 X154.951 Y123.753 E119.57640
G1 X154.821 Y124.523 E119.64133
G1 X154.800 Y124.922 E119.67455
G1 X154.813 Y125.367 E119.71157
G1 X154.856 Y125.761 E119.74452
G1 X155.014 Y126.478 E119.80557
G1 X155.294 Y127.213 E119.87097
G1 X155.505 Y127.612 E119.90850
G1 X155.917 Y128.220 E119.96957
G1 X156.448 Y128.798 E120.03484
G1 X156.750 Y129.059 E120.06803
G1 X157.108 Y129.320 E120.10487
G1 X157.300 Y129.440 E120.12369
G1 X157.301 Y133.039 E120.42295
G1 X157.321 Y133.305 E120.44513
G1 X157.453 Y133.807 E120.48829
G1 X157.569 Y134.052 E120.51083
G1 X157.709 Y134.276 E120.53280
G1 X157.856 Y134.464 E120.55264
G1 X158.249 Y134.811 E120.59623
G1 X158.718 Y135.058 E120.64031
G1 X159.232 Y135.185 E120.68433
G1 X160.370 Y135.200 E120.77897
G1 X160.803 Y135.179 E120.81501
G1 X161.307 Y135.046 E120.85835
G1 X161.552 Y134.930 E120.88089
G1 X161.776 Y134.790 E120.90286
G1 X161.964 Y134.643 E120.92270
G1 X162.311 Y134.250 E120.96629
G1 X162.558 Y133.781 E121.01037
G1 X162.685 Y133.266 E121.05448
G1 X162.700 Y129.441 E121.37253
G1 X162.937 Y129.291 E121.39585
G1 X163.547 Y128.802 E121.46086
G1 X163.862 Y128.478 E121.49843
G1 X164.314 Y127.903 E121.55925
G1 X164.548 Y127.517 E121.59678
G1 X164.857 Y126.855 E121.65753
G1 X164.998 Y126.425 E121.69515
G1 X165.151 Y125.711 E121.75587
G1 X165.190 Y125.315 E121.78896
G1 X165.199 Y124.917 E121.82206
G1 X165.128 Y124.140 E121.88694
G1 X165.047 Y123.748 E121.92022
G1 X164.920 Y123.319 E121.95742
G1 X164.635 Y122.642 E122.01850
G1 X164.225 Y121.968 E122.08410
G1 X163.720 Y121.366 E122.14944
G1 X163.389 Y121.058 E122.18703
G1 X162.804 Y120.621 E122.24775
G1 X162.413 Y120.394 E122.28534
G1 X161.741 Y120.099 E122.34636
G1 X160.983 Y119.893 E122.41168
G1 X160.590 Y119.833 E122.44474
G1 X160.196 Y119.803 E122.47759
G1 X159.748 Y119.806 E122.51484
G1 X159.019 Y119.892 E122.57588
G1 X158.261 Y120.098 E122.64119
G1 X157.888 Y120.248 E122.67462
G1 X157.200 Y120.618 E122.73958
G1 X156.830 Y120.878 E122.77718
G1 X156.282 Y121.362 E122.83798
G1 X155.982 Y121.700 E122.87555
G0 F9000 X155.856 Y121.632
;TYPE:SKIN
G1 F1800 X133.488 Y99.264 E125.50586
G0 F9000 X133.622 Y98.833
G1 F1800 X156.121 Y121.331 E128.15151
G0 F9000 X156.413 Y121.058
G1 F1800 X133.757 Y98.402 E130.81568
G0 F9000 X133.892 Y97.971
G1 F1800 X156.713 Y120.792 E133.49926
G0 F9000 X157.042 Y120.556
G1 F1800 X134.027 Y97.540 E136.20570
G0 F9000 X134.161 Y97.109
G1 F1800 X157.401 Y120.349 E138.93855
G0 F9000 X157.769 Y120.151
G1 F1800 X134.295 Y96.677 E141.69891
G0 F9000 X134.430 Y96.247
G1 F1800 X158.167 Y119.983 E144.49014
G0 F9000 X158.607 Y119.858
G1 F1800 X138.824 Y100.074 E146.81653
G0 F9000 X139.389 Y100.074
G1 F1800 X159.061 Y119.746 E149.12981
G0 F9000 X159.567 Y119.686
G1 F1800 X139.955 Y100.074 E151.43603
G0 F9000 X139.955 Y100.235
G0 X133.167 Y100.235
G0 X133.167 Y100.074
G1 F1800 X155.394 Y122.301 E154.04975
G0 F9000 X155.621 Y121.963
G1 F1800 X133.384 Y99.726 E156.66465
G0 F9000 X133.533 Y99.790
G0 X134.718 Y95.863
G0 X134.565 Y95.815
G1 F1800 X138.488 Y99.739 E157.12603
G0 F9000 X138.250 Y98.935
G1 F1800 X134.700 Y95.385 E157.54348
G0 F9000 X134.834 Y94.953
G1 F1800 X138.012 Y98.131 E157.91719
G0 F9000 X137.774 Y97.327
G1 F1800 X134.969 Y94.523 E158.24698
G0 F9000 X135.104 Y94.091
G1 F1800 X137.535 Y96.523 E158.53290
G0 F9000 X137.298 Y95.720
G1 F1800 X135.239 Y93.661 E158.77502
G0 F9000 X135.373 Y93.229
G1 F1800 X137.059 Y94.916 E158.97334
G0 F9000 X136.821 Y94.112
G1 F1800 X135.508 Y92.799 E159.12774
G0 F9000 X135.642 Y92.367
G1 F1800 X136.583 Y93.308 E159.23840
G0 F9000 X136.345 Y92.504
G1 F1800 X135.777 Y91.937 E159.30513
G0 F9000 X136.106 Y91.700
G1 F1800 X135.912 Y91.505 E159.32800
G1 F2400 E155.32800
G0 F9000 X132.779 Y90.636
G1 F2400 E159.32800
G1 F1800 X132.324 Y90.180 E159.38157
G0 F9000 X132.324 Y89.615
G1 F1800 X132.914 Y90.204 E159.45089
G0 F9000 X133.047 Y89.772
G1 F1800 X132.324 Y89.049 E159.53591
G0 F9000 X132.324 Y88.483
G1 F1800 X133.182 Y89.341 E159.63680
G0 F9000 X133.316 Y88.910
G1 F1800 X132.324 Y87.918 E159.75345
G0 F9000 X132.324 Y87.352
G1 F1800 X133.450 Y88.478 E159.88586
G0 F9000 X133.585 Y88.047
G1 F1800 X132.324 Y86.786 E160.03414
G0 F9000 X132.324 Y86.221
G1 F1800 X133.719 Y87.616 E160.19819
