;Generated with Cura_SteamEngine 15.01
; Default start code
G28 ; Home extruder
G1 Z15 F100
M107 ; Turn off fan
G90 ; Absolute positioning
M82 ; Extruder in absolute mode
M190 S50
; Activate all used extruder
M104 T0 S210
G92 E0 ; Reset extruder position
; Wait for all used extruders to reach temperature
M109 T0 S210
;Layer count: 49
;LAYER:0
M107
G0 F9000 X97.481 Y71.679 Z0.500
;TYPE:SKIRT
G1 F1800 X106.558 Y71.679 E0.75476
G1 X106.558 Y72.179 E0.79633
G1 X110.468 Y72.179 E1.12145
G1 X110.470 Y78.831 E1.67456
G1 X110.469 Y78.925 E1.68238
G1 X110.470 Y80.686 E1.82881
G1 X112.165 Y80.686 E1.96975
G1 X111.596 Y85.372 E2.36225
G1 X111.437 Y86.657 E2.46992
G1 X111.094 Y89.484 E2.70671
G1 X110.943 Y90.713 E2.80967
G1 X110.828 Y91.675 E2.89023
G1 X111.260 Y91.984 E2.93439
G1 X111.914 Y92.484 E3.00284
G1 X112.424 Y92.912 E3.05820
G1 X113.039 Y93.464 E3.12692
G1 X113.513 Y93.928 E3.18207
G1 X114.085 Y94.530 E3.25112
G1 X114.520 Y95.030 E3.30623
G1 X115.040 Y95.670 E3.37480
G1 X115.436 Y96.204 E3.43008
G1 X115.905 Y96.884 E3.49876
G1 X116.257 Y97.446 E3.55390
G1 X116.675 Y98.166 E3.62313
G1 X116.979 Y98.752 E3.67802
G1 X117.336 Y99.494 E3.74649
G1 X117.597 Y100.107 E3.80189
G1 X117.896 Y100.879 E3.87073
G1 X118.107 Y101.508 E3.92589
G1 X118.344 Y102.301 E3.99471
G1 X118.504 Y102.943 E4.04973
G1 X118.679 Y103.751 E4.11847
G1 X118.790 Y104.409 E4.17396
G1 X118.899 Y105.226 E4.24249
G1 X118.958 Y105.886 E4.29759
G1 X119.003 Y106.701 E4.36546
G1 X119.012 Y107.230 E4.40945
G1 X119.002 Y107.873 E4.46293
G1 X118.962 Y108.699 E4.53169
G1 X118.899 Y109.360 E4.58690
G1 X118.794 Y110.181 E4.65572
G1 X118.679 Y110.835 E4.71094
G1 X118.510 Y111.648 E4.77998
G1 X118.300 Y112.456 E4.84940
G1 X118.111 Y113.090 E4.90441
G1 X117.898 Y113.708 E4.95876
G1 X117.606 Y114.480 E5.02739
G1 X117.342 Y115.092 E5.08282
G1 X116.989 Y115.839 E5.15151
G1 X116.679 Y116.426 E5.20671
G1 X116.269 Y117.141 E5.27525
G1 X115.915 Y117.702 E5.33040
G1 X115.447 Y118.388 E5.39945
G1 X115.324 Y118.552 E5.41650
G1 X114.848 Y119.180 E5.48202
G1 X114.420 Y119.691 E5.53745
G1 X113.871 Y120.305 E5.60594
G1 X113.408 Y120.779 E5.66103
G1 X112.810 Y121.352 E5.72990
G1 X112.310 Y121.789 E5.78511
G1 X111.669 Y122.313 E5.85396
G1 X111.136 Y122.709 E5.90917
G1 X110.460 Y123.179 E5.97763
G1 X109.897 Y123.534 E6.03297
G1 X109.181 Y123.951 E6.10187
G1 X108.596 Y124.258 E6.15680
G1 X107.853 Y124.618 E6.22545
G1 X107.241 Y124.880 E6.28081
G1 X106.470 Y125.181 E6.34963
G1 X105.840 Y125.394 E6.40493
G1 X105.050 Y125.632 E6.47353
G1 X104.408 Y125.795 E6.52861
G1 X103.600 Y125.972 E6.59739
G1 X102.943 Y126.084 E6.65280
G1 X102.125 Y126.196 E6.72146
G1 X101.462 Y126.257 E6.77682
G1 X100.652 Y126.303 E6.84428
G1 X100.127 Y126.314 E6.88794
G1 X99.478 Y126.306 E6.94191
G1 X98.647 Y126.267 E7.01108
G1 X97.819 Y126.188 E7.08025
G1 X97.160 Y126.102 E7.13551
G1 X96.515 Y125.991 E7.18993
G1 X95.706 Y125.824 E7.25861
G1 X95.064 Y125.661 E7.31369
G1 X94.270 Y125.432 E7.38240
G1 X93.640 Y125.217 E7.43775
G1 X92.868 Y124.927 E7.50633
G1 X92.257 Y124.666 E7.56157
G1 X91.505 Y124.313 E7.63065
G1 X90.918 Y124.004 E7.68581
G1 X90.203 Y123.597 E7.75422
G1 X89.641 Y123.244 E7.80940
G1 X88.955 Y122.779 E7.87831
G1 X88.425 Y122.384 E7.93327
G1 X87.778 Y121.868 E8.00208
G1 X87.278 Y121.431 E8.05730
G1 X86.674 Y120.865 E8.12613
G1 X86.210 Y120.390 E8.18134
G1 X85.652 Y119.779 E8.25015
G1 X85.227 Y119.269 E8.30535
G1 X84.719 Y118.617 E8.37407
G1 X84.334 Y118.075 E8.42935
G1 X83.880 Y117.385 E8.49803
G1 X83.541 Y116.817 E8.55303
G1 X83.139 Y116.091 E8.62204
G1 X82.846 Y115.498 E8.67704
G1 X82.503 Y114.746 E8.74576
G1 X82.256 Y114.129 E8.80103
G1 X81.973 Y113.351 E8.86986
G1 X81.775 Y112.715 E8.92525
G1 X81.556 Y111.922 E8.99366
G1 X81.408 Y111.276 E9.04876
G1 X81.250 Y110.463 E9.11763
G1 X81.153 Y109.804 E9.17302
G1 X81.060 Y108.983 E9.24172
G1 X81.016 Y108.320 E9.29697
G1 X80.987 Y107.497 E9.36544
G1 X80.994 Y106.832 E9.42074
G1 X81.030 Y106.003 E9.48974
G1 X81.089 Y105.345 E9.54467
G1 X81.190 Y104.524 E9.61345
G1 X81.301 Y103.867 E9.66886
G1 X81.466 Y103.056 E9.73767
G1 X81.627 Y102.414 E9.79271
G1 X81.855 Y101.620 E9.86140
G1 X82.067 Y100.990 E9.91667
G1 X82.354 Y100.218 E9.98515
G1 X82.615 Y99.605 E10.04055
G1 X82.964 Y98.858 E10.10911
G1 X83.270 Y98.269 E10.16430
G1 X83.679 Y97.545 E10.23344
G1 X84.030 Y96.985 E10.28840
G1 X84.492 Y96.300 E10.35710
G1 X84.887 Y95.767 E10.41226
G1 X85.402 Y95.119 E10.48109
G1 X85.836 Y94.619 E10.53614
G1 X86.400 Y94.013 E10.60498
G1 X86.874 Y93.547 E10.66025
G1 X87.483 Y92.988 E10.72898
G1 X87.991 Y92.562 E10.78411
G1 X88.644 Y92.050 E10.85311
G1 X89.185 Y91.665 E10.90832
G1 X89.872 Y91.209 E10.97688
G1 X90.441 Y90.868 E11.03204
G1 X91.164 Y90.465 E11.10087
G1 X91.758 Y90.170 E11.15602
G1 X92.508 Y89.825 E11.22466
G1 X93.126 Y89.576 E11.28006
G1 X93.902 Y89.292 E11.34877
G1 X94.534 Y89.093 E11.40387
G1 X95.331 Y88.869 E11.47270
G1 X95.979 Y88.720 E11.52799
G1 X96.792 Y88.561 E11.59687
G1 X97.217 Y88.498 E11.63260
G1 X97.558 Y87.101 E11.75217
G1 X97.481 Y87.101 E11.75857
G1 X97.481 Y71.679 E13.04092
G1 F2400 E9.04092
G0 F9000 X103.554 Y75.579
;TYPE:WALL-OUTER
G1 F2400 E13.04092
G1 F1800 X107.069 Y75.579 E13.33319
G1 X107.070 Y78.806 E13.60152
G1 X107.069 Y78.878 E13.60750
G1 X107.070 Y82.179 E13.88198
G1 X103.553 Y82.179 E14.17442
G1 X103.554 Y75.579 E14.72322
G0 F9000 X103.720 Y75.719
;TYPE:SKIN
G1 F1800 X106.929 Y78.927 E15.10051
G0 F9000 X106.929 Y79.493
G1 F1800 X103.692 Y76.257 E15.48110
G0 F9000 X103.692 Y76.822
G1 F1800 X106.929 Y80.059 E15.86174
G0 F9000 X106.929 Y80.625
G1 F1800 X103.692 Y77.388 E16.24239
G0 F9000 X103.692 Y77.954
G1 F1800 X106.929 Y81.190 E16.62298
G0 F9000 X106.929 Y81.756
G1 F1800 X103.692 Y78.519 E17.00362
G0 F9000 X103.692 Y79.084
G1 F1800 X106.646 Y82.039 E17.35105
G0 F9000 X106.080 Y82.039
G1 F1800 X103.692 Y79.650 E17.63192
G0 F9000 X103.853 Y79.651
G0 X106.769 Y78.361
G0 X106.928 Y78.361
G1 F1800 X104.286 Y75.719 E17.94260
G0 F9000 X104.851 Y75.719
G1 F1800 X106.928 Y77.795 E18.18678
G0 F9000 X106.928 Y77.230
G1 F1800 X105.417 Y75.719 E18.36446
G0 F9000 X105.983 Y75.719
G1 F1800 X106.928 Y76.664 E18.47559
G0 F9000 X106.928 Y76.098
G1 F1800 X106.548 Y75.719 E18.52021
G0 F9000 X106.548 Y75.879
G0 X103.853 Y80.217
G0 X103.692 Y80.216
G1 F1800 X105.515 Y82.039 E18.73458
G0 F9000 X104.949 Y82.039
G1 F1800 X103.692 Y80.782 E18.88240
G0 F9000 X103.692 Y81.347
G1 F1800 X104.383 Y82.039 E18.96371
G0 F9000 X103.818 Y82.039
G1 F1800 X103.692 Y81.913 E18.97853
G0 F9000 X104.553 Y81.179
G1 F2400 E14.97853
G0 F9000 X106.987 Y84.089
;TYPE:WALL-OUTER
G1 F2400 E18.97853
G1 F1800 X108.327 Y84.086 E19.08995
G1 X107.189 Y93.438 E19.87331
G1 X107.772 Y93.761 E19.92873
G1 X108.221 Y94.031 E19.97229
G1 X108.810 Y94.412 E20.03062
G1 X109.235 Y94.716 E20.07407
G1 X109.792 Y95.142 E20.13238
G1 X110.194 Y95.477 E20.17589
G1 X110.715 Y95.947 E20.23423
G1 X111.088 Y96.312 E20.27763
G1 X111.572 Y96.821 E20.33603
G1 X111.915 Y97.215 E20.37947
G1 X112.351 Y97.752 E20.43698
G1 X112.668 Y98.180 E20.48127
G1 X113.066 Y98.757 E20.53956
G1 X113.344 Y99.199 E20.58297
G1 X113.691 Y99.798 E20.64053
G1 X113.939 Y100.276 E20.68531
G1 X114.237 Y100.893 E20.74228
G1 X114.445 Y101.383 E20.78655
G1 X114.695 Y102.029 E20.84414
G1 X114.864 Y102.532 E20.88827
G1 X115.065 Y103.204 E20.94659
G1 X115.192 Y103.711 E20.99005
G1 X115.339 Y104.388 E21.04765
G1 X115.427 Y104.913 E21.09192
G1 X115.519 Y105.599 E21.14947
G1 X115.566 Y106.129 E21.19371
G1 X115.605 Y106.820 E21.25126
G1 X115.612 Y107.227 E21.28511
G1 X115.603 Y107.759 E21.32935
G1 X115.569 Y108.460 E21.38771
G1 X115.520 Y108.980 E21.43114
G1 X115.432 Y109.667 E21.48873
G1 X115.340 Y110.191 E21.53296
G1 X115.199 Y110.869 E21.59055
G1 X115.025 Y111.539 E21.64810
G1 X114.871 Y112.056 E21.69296
G1 X114.701 Y112.551 E21.73648
G1 X114.456 Y113.198 E21.79401
G1 X114.242 Y113.692 E21.83877
G1 X113.949 Y114.314 E21.89594
G1 X113.701 Y114.783 E21.94005
G1 X113.357 Y115.384 E21.99764
G1 X113.074 Y115.833 E22.04177
G1 X112.684 Y116.405 E22.09933
G1 X112.186 Y117.063 E22.16795
G1 X111.850 Y117.464 E22.21145
G1 X111.389 Y117.980 E22.26898
G1 X111.013 Y118.365 E22.31373
G1 X110.518 Y118.841 E22.37083
G1 X110.117 Y119.190 E22.41504
G1 X109.575 Y119.633 E22.47324
G1 X109.150 Y119.949 E22.51728
G1 X108.586 Y120.341 E22.57439
G1 X108.137 Y120.624 E22.61852
G1 X107.531 Y120.977 E22.67684
G1 X107.068 Y121.220 E22.72032
G1 X106.445 Y121.522 E22.77788
G1 X105.950 Y121.734 E22.82266
G1 X105.312 Y121.983 E22.87961
G1 X104.802 Y122.155 E22.92436
G1 X104.145 Y122.354 E22.98144
G1 X103.624 Y122.486 E23.02613
G1 X102.954 Y122.633 E23.08317
G1 X102.423 Y122.724 E23.12796
G1 X101.739 Y122.817 E23.18536
G1 X101.214 Y122.865 E23.22920
G1 X100.515 Y122.905 E23.28741
G1 X100.112 Y122.914 E23.32093
G1 X99.583 Y122.907 E23.36492
G1 X98.882 Y122.874 E23.42328
G1 X98.196 Y122.809 E23.48057
G1 X97.676 Y122.741 E23.52418
G1 X97.151 Y122.650 E23.56848
G1 X96.470 Y122.510 E23.62629
G1 X95.951 Y122.378 E23.67082
G1 X95.284 Y122.186 E23.72854
G1 X94.789 Y122.017 E23.77203
G1 X94.139 Y121.773 E23.82976
G1 X93.646 Y121.562 E23.87435
G1 X93.017 Y121.267 E23.93212
G1 X92.555 Y121.023 E23.97556
G1 X91.945 Y120.676 E24.03391
G1 X91.503 Y120.399 E24.07729
G1 X90.922 Y120.004 E24.13570
G1 X90.504 Y119.693 E24.17903
G1 X89.962 Y119.260 E24.23671
G1 X89.557 Y118.906 E24.28144
G1 X89.050 Y118.432 E24.33915
G1 X88.680 Y118.053 E24.38319
G1 X88.212 Y117.540 E24.44093
G1 X87.873 Y117.133 E24.48497
G1 X87.446 Y116.585 E24.54274
G1 X87.140 Y116.153 E24.58676
G1 X86.763 Y115.580 E24.64379
G1 X86.487 Y115.118 E24.68854
G1 X86.150 Y114.510 E24.74634
G1 X85.916 Y114.036 E24.79030
G1 X85.628 Y113.404 E24.84805
G1 X85.432 Y112.913 E24.89201
G1 X85.194 Y112.260 E24.94980
G1 X85.037 Y111.754 E24.99385
G1 X84.852 Y111.085 E25.05157
G1 X84.734 Y110.568 E25.09566
G1 X84.603 Y109.896 E25.15259
G1 X84.525 Y109.363 E25.19738
G1 X84.447 Y108.673 E25.25512
G1 X84.412 Y108.145 E25.29912
G1 X84.388 Y107.459 E25.35619
G1 X84.393 Y106.927 E25.40043
G1 X84.424 Y106.226 E25.45878
G1 X84.470 Y105.706 E25.50218
G1 X84.556 Y105.009 E25.56058
G1 X84.643 Y104.494 E25.60401
G1 X84.781 Y103.815 E25.66162
G1 X84.910 Y103.300 E25.70577
G1 X85.100 Y102.635 E25.76328
G1 X85.273 Y102.124 E25.80813
G1 X85.512 Y101.481 E25.86517
G1 X85.719 Y100.993 E25.90925
G1 X86.013 Y100.365 E25.96691
G1 X86.257 Y99.894 E26.01102
G1 X86.603 Y99.283 E26.06940
G1 X86.879 Y98.841 E26.11273
G1 X87.267 Y98.266 E26.17041
G1 X87.583 Y97.839 E26.21458
G1 X88.014 Y97.296 E26.27222
G1 X88.367 Y96.890 E26.31696
G1 X88.834 Y96.388 E26.37397
G1 X89.218 Y96.011 E26.41871
G1 X89.722 Y95.547 E26.47568
G1 X90.130 Y95.205 E26.51995
G1 X90.675 Y94.778 E26.57752
G1 X91.109 Y94.470 E26.62177
G1 X91.693 Y94.082 E26.68007
G1 X92.140 Y93.813 E26.72345
G1 X92.753 Y93.472 E26.78177
G1 X93.221 Y93.239 E26.82524
G1 X93.858 Y92.947 E26.88351
G1 X94.344 Y92.750 E26.92711
G1 X95.003 Y92.510 E26.98543
G1 X95.501 Y92.353 E27.02885
G1 X96.176 Y92.164 E27.08713
G1 X96.692 Y92.045 E27.13117
G1 X97.364 Y91.913 E27.18811
G1 X97.890 Y91.835 E27.23233
G1 X98.579 Y91.754 E27.29001
G1 X99.115 Y91.716 E27.33469
G1 X99.926 Y91.682 E27.40219
G1 X100.496 Y89.401 E27.59768
G1 X101.796 Y84.086 E28.05266
G1 X106.987 Y84.089 E28.48429
G0 F9000 X107.136 Y84.226
;TYPE:SKIN
G1 F1800 X108.056 Y85.146 E28.59247
G0 F9000 X107.995 Y85.650
G1 F1800 X106.570 Y84.226 E28.75998
G0 F9000 X106.005 Y84.226
G1 F1800 X107.934 Y86.155 E28.98682
G0 F9000 X107.872 Y86.659
G1 F1800 X105.439 Y84.226 E29.27292
G0 F9000 X104.873 Y84.226
G1 F1800 X107.811 Y87.163 E29.61835
G0 F9000 X107.749 Y87.667
G1 F1800 X104.308 Y84.226 E30.02299
G0 F9000 X103.742 Y84.226
G1 F1800 X107.688 Y88.172 E30.48700
G0 F9000 X107.627 Y88.676
G1 F1800 X103.176 Y84.226 E31.01035
G0 F9000 X102.611 Y84.226
G1 F1800 X107.565 Y89.181 E31.59296
G0 F9000 X107.504 Y89.685
G1 F1800 X102.045 Y84.226 E32.23490
G0 F9000 X101.821 Y84.567
G1 F1800 X107.443 Y90.190 E32.89606
G0 F9000 X107.381 Y90.694
G1 F1800 X101.708 Y85.021 E33.56316
G0 F9000 X101.597 Y85.475
G1 F1800 X107.320 Y91.198 E34.23614
G0 F9000 X107.258 Y91.702
G1 F1800 X101.485 Y85.929 E34.91500
G0 F9000 X101.373 Y86.382
G1 F1800 X107.198 Y92.207 E35.59998
G0 F9000 X107.136 Y92.711
G1 F1800 X101.261 Y86.836 E36.29083
G0 F9000 X101.150 Y87.290
G1 F1800 X107.075 Y93.215 E36.98757
G0 F9000 X107.803 Y93.944
G1 F1800 X113.350 Y99.491 E37.63985
G0 F9000 X113.982 Y100.689
G1 F1800 X101.038 Y87.744 E39.16203
G0 F9000 X100.926 Y88.198
G1 F1800 X114.409 Y101.681 E40.74752
G0 F9000 X114.726 Y102.564
G1 F1800 X100.815 Y88.652 E42.38341
G0 F9000 X100.703 Y89.106
G1 F1800 X114.960 Y103.363 E44.05992
G0 F9000 X115.133 Y104.103
G1 F1800 X100.591 Y89.560 E45.77001
G0 F9000 X100.479 Y90.013
G1 F1800 X115.266 Y104.801 E47.50891
G0 F9000 X115.359 Y105.460
G1 F1800 X100.367 Y90.467 E49.27191
G0 F9000 X100.255 Y90.921
G1 F1800 X115.421 Y106.087 E51.05532
G0 F9000 X115.457 Y106.688
G1 F1800 X100.143 Y91.375 E52.85607
G0 F9000 X100.020 Y91.818
G1 F1800 X115.470 Y107.268 E54.67287
G0 F9000 X115.459 Y107.823
G1 F1800 X99.477 Y91.841 E56.55223
G0 F9000 X98.939 Y91.868
G1 F1800 X115.433 Y108.362 E58.49180
G0 F9000 X115.389 Y108.883
G1 F1800 X98.419 Y91.913 E60.48734
G0 F9000 X97.913 Y91.974
G1 F1800 X115.326 Y109.387 E62.53497
G0 F9000 X115.252 Y109.878
G1 F1800 X97.420 Y92.046 E64.63188
G0 F9000 X96.946 Y92.138
G1 F1800 X115.162 Y110.354 E66.77394
G0 F9000 X115.065 Y110.822
G1 F1800 X96.480 Y92.237 E68.95939
G0 F9000 X96.027 Y92.350
G1 F1800 X114.949 Y111.272 E71.18448
G0 F9000 X114.826 Y111.715
G1 F1800 X95.585 Y92.474 E73.44707
G0 F9000 X95.154 Y92.609
G1 F1800 X114.691 Y112.145 E75.74441
G0 F9000 X114.544 Y112.565
G1 F1800 X94.736 Y92.756 E78.07374
G0 F9000 X94.323 Y92.909
G1 F1800 X114.390 Y112.975 E80.43341
G0 F9000 X114.224 Y113.376
G1 F1800 X93.920 Y93.072 E82.82100
G0 F9000 X93.532 Y93.249
G1 F1800 X114.051 Y113.768 E85.23388
G0 F9000 X113.870 Y114.153
G1 F1800 X93.147 Y93.430 E87.67075
G0 F9000 X92.773 Y93.621
G1 F1800 X113.678 Y114.527 E90.12907
G0 F9000 X113.477 Y114.892
G1 F1800 X92.408 Y93.823 E92.60663
G0 F9000 X92.049 Y94.029
G1 F1800 X113.271 Y115.251 E95.10217
G0 F9000 X113.055 Y115.600
G1 F1800 X91.700 Y94.246 E97.61330
G0 F9000 X91.361 Y94.472
G1 F1800 X112.830 Y115.941 E100.13789
G0 F9000 X112.601 Y116.278
G1 F1800 X91.025 Y94.702 E102.67506
G0 F9000 X90.695 Y94.938
G1 F1800 X112.359 Y116.601 E105.22252
G0 F9000 X112.115 Y116.923
G1 F1800 X90.378 Y95.187 E107.77857
G0 F9000 X90.066 Y95.440
G1 F1800 X111.860 Y117.234 E110.34137
G0 F9000 X111.597 Y117.536
G1 F1800 X89.760 Y95.700 E112.90918
G0 F9000 X89.466 Y95.972
G1 F1800 X111.330 Y117.835 E115.48016
G0 F9000 X111.052 Y118.123
G1 F1800 X89.176 Y96.247 E118.05261
G0 F9000 X88.892 Y96.529
G1 F1800 X110.767 Y118.404 E120.62494
G0 F9000 X110.479 Y118.681
G1 F1800 X88.619 Y96.822 E123.19545
G0 F9000 X88.350 Y97.118
G1 F1800 X110.179 Y118.948 E125.76243
G0 F9000 X109.873 Y119.206
G1 F1800 X88.089 Y97.423 E128.32400
G0 F9000 X87.839 Y97.739
G1 F1800 X109.561 Y119.461 E130.87834
G0 F9000 X109.240 Y119.706
G1 F1800 X87.593 Y98.058 E133.42392
G0 F9000 X87.354 Y98.385
G1 F1800 X108.912 Y119.942 E135.95892
G0 F9000 X108.578 Y120.174
G1 F1800 X87.126 Y98.722 E138.48151
G0 F9000 X86.902 Y99.064
G1 F1800 X108.233 Y120.395 E140.98987
G0 F9000 X107.881 Y120.609
G1 F1800 X86.687 Y99.415 E143.48213
G0 F9000 X86.482 Y99.776
G1 F1800 X107.524 Y120.817 E145.95645
G0 F9000 X107.155 Y121.014
G1 F1800 X86.283 Y100.143 E148.41077
G0 F9000 X86.094 Y100.519
G1 F1800 X106.778 Y121.203 E150.84305
G0 F9000 X106.397 Y121.388
G1 F1800 X85.914 Y100.904 E153.25176
G0 F9000 X85.740 Y101.297
G1 F1800 X106.002 Y121.558 E155.63435
G0 F9000 X105.597 Y121.719
G1 F1800 X85.579 Y101.701 E157.98832
G0 F9000 X85.424 Y102.112
G1 F1800 X105.187 Y121.874 E160.31224
G0 F9000 X104.766 Y122.019
G1 F1800 X85.280 Y102.534 E162.60358
G0 F9000 X85.149 Y102.968
G1 F1800 X104.331 Y122.150 E164.85924
G0 F9000 X103.888 Y122.272
G1 F1800 X85.025 Y103.410 E167.07732
G0 F9000 X84.912 Y103.863
G1 F1800 X103.432 Y122.383 E169.25513
G0 F9000 X102.969 Y122.485
