;Generated with Cura_SteamEngine 15.01
; Default start code
G28 ; Home extruder
G1 Z15 F100
M107 ; Turn off fan
G90 ; Absolute positioning
M82 ; Extruder in absolute mode
M190 S50
; Activate all used extruder
M104 T0 S210
G92 E0 ; Reset extruder position
; Wait for all used extruders to reach temperature
M109 T0 S210
;Layer count: 49
;LAYER:0
M107
G0 F9000 X82.663 Y92.021 Z0.500
;TYPE:SKIRT
G1 F1800 X83.388 Y91.412 E0.07873
G1 X84.136 Y90.828 E0.15764
G1 X84.905 Y90.274 E0.23645
G1 X85.695 Y89.747 E0.31541
G1 X86.505 Y89.251 E0.39439
G1 X87.330 Y88.787 E0.47309
G1 X88.175 Y88.351 E0.55215
G1 X89.034 Y87.950 E0.63098
G1 X89.907 Y87.579 E0.70985
G1 X90.795 Y87.242 E0.78883
G1 X91.694 Y86.938 E0.86774
G1 X92.604 Y86.669 E0.94664
G1 X93.521 Y86.433 E1.02538
G1 X94.450 Y86.231 E1.10443
G1 X95.384 Y86.065 E1.18331
G1 X96.323 Y85.934 E1.26214
G1 X97.267 Y85.838 E1.34104
G1 X98.213 Y85.776 E1.41987
G1 X99.162 Y85.751 E1.49881
G1 X100.112 Y85.760 E1.57780
G1 X100.819 Y85.794 E1.63666
G1 X100.964 Y85.663 E1.65291
G1 X102.801 Y84.012 E1.85828
G1 X105.940 Y81.179 E2.20987
G1 X107.379 Y79.353 E2.40318
G1 X108.102 Y78.436 E2.50028
G1 X109.749 Y76.342 E2.72180
G1 X110.496 Y75.396 E2.82203
G1 X110.774 Y75.041 E2.85952
G1 X110.774 Y64.399 E3.74441
G1 X119.707 Y64.399 E4.48719
G1 X119.707 Y64.899 E4.52876
G1 X123.610 Y64.899 E4.85330
G1 X123.617 Y71.879 E5.43369
G1 X126.903 Y71.879 E5.70692
G1 X124.706 Y80.570 E6.45231
G1 X123.855 Y83.932 E6.74068
G1 X123.444 Y85.547 E6.87925
G1 X122.985 Y86.976 E7.00405
G1 X122.034 Y89.931 E7.26217
G1 X120.643 Y94.239 E7.63859
G1 X119.980 Y96.309 E7.81933
G1 X120.111 Y96.487 E7.83770
G1 X120.640 Y97.265 E7.91593
G1 X121.140 Y98.063 E7.99424
G1 X121.608 Y98.877 E8.07231
G1 X122.047 Y99.708 E8.15046
G1 X122.456 Y100.555 E8.22867
G1 X122.832 Y101.417 E8.30686
G1 X123.177 Y102.295 E8.38530
G1 X123.487 Y103.181 E8.46335
G1 X123.766 Y104.077 E8.54139
G1 X124.011 Y104.987 E8.61975
G1 X124.222 Y105.903 E8.69791
G1 X124.399 Y106.826 E8.77605
G1 X124.542 Y107.754 E8.85413
G1 X124.651 Y108.689 E8.93240
G1 X124.724 Y109.628 E9.01071
G1 X124.763 Y110.566 E9.08878
G1 X124.767 Y111.507 E9.16702
G1 X124.736 Y112.449 E9.24539
G1 X124.670 Y113.388 E9.32366
G1 X124.569 Y114.320 E9.40161
G1 X124.436 Y115.250 E9.47973
G1 X124.266 Y116.178 E9.55818
G1 X124.062 Y117.095 E9.63629
G1 X123.826 Y118.004 E9.71438
G1 X123.556 Y118.906 E9.79267
G1 X123.251 Y119.797 E9.87098
G1 X122.914 Y120.675 E9.94917
G1 X122.545 Y121.539 E10.02729
G1 X122.144 Y122.391 E10.10559
G1 X121.712 Y123.225 E10.18369
G1 X121.251 Y124.042 E10.26169
G1 X120.759 Y124.844 E10.33993
G1 X120.236 Y125.627 E10.41822
G1 X119.686 Y126.389 E10.49636
G1 X119.107 Y127.131 E10.57462
G1 X118.503 Y127.850 E10.65270
G1 X117.871 Y128.547 E10.73094
G1 X117.215 Y129.220 E10.80908
G1 X116.533 Y129.868 E10.88731
G1 X115.828 Y130.491 E10.96554
G1 X115.099 Y131.088 E11.04389
G1 X114.350 Y131.655 E11.12200
G1 X113.585 Y132.194 E11.19981
G1 X112.794 Y132.708 E11.27825
G1 X111.982 Y133.192 E11.35685
G1 X111.396 Y133.511 E11.41233
G1 X110.616 Y133.912 E11.48526
G1 X107.457 Y135.492 E11.77895
G1 X105.822 Y132.072 E12.09415
G1 X98.043 Y115.787 E13.59481
G1 X83.043 Y125.343 E15.07367
G1 X82.490 Y125.696 E15.12822
G1 X79.621 Y127.520 E15.41091
G1 X77.459 Y123.982 E15.75567
G1 X76.996 Y123.156 E15.83441
G1 X76.563 Y122.313 E15.91321
G1 X76.162 Y121.452 E15.99219
G1 X75.793 Y120.578 E16.07107
G1 X75.457 Y119.688 E16.15017
G1 X75.154 Y118.791 E16.22890
G1 X74.885 Y117.879 E16.30796
G1 X74.650 Y116.959 E16.38692
G1 X74.451 Y116.033 E16.46567
G1 X74.285 Y115.098 E16.54463
G1 X74.156 Y114.156 E16.62369
G1 X74.061 Y113.216 E16.70225
G1 X74.001 Y112.269 E16.78115
G1 X73.977 Y111.318 E16.86025
G1 X73.988 Y110.369 E16.93917
G1 X74.035 Y109.420 E17.01818
G1 X74.117 Y108.474 E17.09713
G1 X74.235 Y107.533 E17.17599
G1 X74.387 Y106.598 E17.25475
G1 X74.575 Y105.669 E17.33357
G1 X74.796 Y104.745 E17.41256
G1 X75.054 Y103.829 E17.49169
G1 X75.343 Y102.929 E17.57029
G1 X75.666 Y102.037 E17.64918
G1 X76.023 Y101.158 E17.72806
G1 X76.412 Y100.291 E17.80708
G1 X76.835 Y99.439 E17.88617
G1 X77.287 Y98.609 E17.96476
G1 X77.770 Y97.792 E18.04367
G1 X78.286 Y96.992 E18.12283
G1 X78.829 Y96.217 E18.20152
G1 X79.398 Y95.461 E18.28019
G1 X80.000 Y94.723 E18.35939
G1 X80.629 Y94.010 E18.43844
G1 X81.281 Y93.323 E18.51720
G1 X81.958 Y92.660 E18.59599
G1 X82.663 Y92.021 E18.67511
G1 F2400 E14.67511
G0 F9000 X84.897 Y94.585
;TYPE:WALL-OUTER
G1 F2400 E18.67511
G1 F1800 X85.525 Y94.057 E18.74333
G1 X86.179 Y93.547 E18.81229
G1 X86.840 Y93.070 E18.88007
G1 X87.523 Y92.615 E18.94831
G1 X88.230 Y92.182 E19.01725
G1 X88.941 Y91.782 E19.08508
G1 X89.678 Y91.402 E19.15403
G1 X90.422 Y91.054 E19.22232
G1 X91.171 Y90.736 E19.28998
G1 X91.947 Y90.442 E19.35898
G1 X92.718 Y90.180 E19.42669
G1 X93.507 Y89.948 E19.49508
G1 X94.310 Y89.741 E19.56403
G1 X95.105 Y89.568 E19.63168
G1 X95.921 Y89.423 E19.70059
G1 X96.730 Y89.310 E19.76852
G1 X97.546 Y89.227 E19.83672
G1 X98.373 Y89.173 E19.90563
G1 X99.192 Y89.151 E19.97375
G1 X100.009 Y89.159 E20.04169
G1 X100.838 Y89.199 E20.11070
G1 X101.653 Y89.269 E20.17872
G1 X102.003 Y89.305 E20.20798
G1 X108.432 Y83.511 E20.92761
G1 X114.912 Y75.279 E21.79873
G1 X116.708 Y75.279 E21.94807
G1 X116.705 Y68.299 E22.52846
G1 X120.213 Y68.299 E22.82015
G1 X120.217 Y75.279 E23.40054
G1 X122.537 Y75.279 E23.59345
G1 X120.173 Y84.614 E24.39416
G1 X116.196 Y96.967 E25.47324
G1 X116.854 Y97.796 E25.56124
G1 X117.333 Y98.448 E25.62851
G1 X117.790 Y99.120 E25.69609
G1 X118.226 Y99.817 E25.76445
G1 X118.629 Y100.516 E25.83154
G1 X119.010 Y101.237 E25.89935
G1 X119.364 Y101.971 E25.96711
G1 X119.690 Y102.717 E26.03480
G1 X119.988 Y103.475 E26.10252
G1 X120.257 Y104.243 E26.17019
G1 X120.499 Y105.021 E26.23793
G1 X120.711 Y105.807 E26.30563
G1 X120.895 Y106.608 E26.37396
G1 X121.047 Y107.401 E26.44110
G1 X121.171 Y108.206 E26.50883
G1 X121.266 Y109.022 E26.57714
G1 X121.329 Y109.827 E26.64428
G1 X121.363 Y110.641 E26.71202
G1 X121.367 Y111.455 E26.77971
G1 X121.340 Y112.270 E26.84751
G1 X121.282 Y113.090 E26.91587
G1 X121.196 Y113.893 E26.98302
G1 X121.080 Y114.698 E27.05064
G1 X120.932 Y115.507 E27.11903
G1 X120.758 Y116.295 E27.18613
G1 X120.552 Y117.084 E27.25393
G1 X120.316 Y117.871 E27.32225
G1 X120.055 Y118.634 E27.38931
G1 X119.764 Y119.394 E27.45697
G1 X119.444 Y120.144 E27.52478
G1 X119.097 Y120.881 E27.59251
G1 X118.719 Y121.610 E27.66079
G1 X118.323 Y122.313 E27.72788
G1 X117.897 Y123.007 E27.79559
G1 X117.445 Y123.685 E27.86335
G1 X116.968 Y124.345 E27.93106
G1 X116.467 Y124.988 E27.99884
G1 X115.939 Y125.616 E28.06706
G1 X115.397 Y126.214 E28.13417
G1 X114.828 Y126.797 E28.20191
G1 X114.232 Y127.364 E28.27031
G1 X113.627 Y127.898 E28.33741
G1 X112.991 Y128.419 E28.40577
G1 X112.348 Y128.906 E28.47284
G1 X111.682 Y129.375 E28.54057
G1 X110.993 Y129.823 E28.60891
G1 X110.300 Y130.236 E28.67599
G1 X109.803 Y130.507 E28.72306
G1 X109.080 Y130.879 E28.79067
G1 X109.031 Y130.903 E28.79520
G1 X99.456 Y110.856 E30.64249
G1 X80.718 Y122.794 E32.48991
G1 X80.392 Y122.261 E32.54186
G1 X79.990 Y121.544 E32.61021
G1 X79.615 Y120.814 E32.67845
G1 X79.268 Y120.070 E32.74671
G1 X78.949 Y119.313 E32.81502
G1 X78.661 Y118.548 E32.88299
G1 X78.396 Y117.762 E32.95196
G1 X78.163 Y116.973 E33.02036
G1 X77.960 Y116.178 E33.08859
G1 X77.788 Y115.375 E33.15687
G1 X77.644 Y114.565 E33.22528
G1 X77.532 Y113.751 E33.29360
G1 X77.451 Y112.940 E33.36137
G1 X77.398 Y112.113 E33.43028
G1 X77.377 Y111.299 E33.49799
G1 X77.387 Y110.477 E33.56634
G1 X77.428 Y109.648 E33.63536
G1 X77.498 Y108.837 E33.70304
G1 X77.600 Y108.021 E33.77142
G1 X77.732 Y107.211 E33.83966
G1 X77.895 Y106.405 E33.90804
G1 X78.086 Y105.606 E33.97635
G1 X78.311 Y104.807 E34.04537
G1 X78.560 Y104.032 E34.11305
G1 X78.839 Y103.259 E34.18139
G1 X79.148 Y102.498 E34.24968
G1 X79.485 Y101.748 E34.31805
G1 X79.851 Y101.012 E34.38640
G1 X80.247 Y100.284 E34.45531
G1 X80.661 Y99.582 E34.52307
G1 X81.106 Y98.893 E34.59128
G1 X81.578 Y98.218 E34.65976
G1 X82.072 Y97.562 E34.72805
G1 X82.591 Y96.925 E34.79637
G1 X83.135 Y96.309 E34.86470
G1 X83.701 Y95.712 E34.93311
G1 X84.293 Y95.133 E35.00196
G1 X84.897 Y94.585 E35.06977
G0 F9000 X84.885 Y94.784
;TYPE:SKIN
G1 F1800 X115.734 Y125.633 E38.69738
G0 F9000 X115.996 Y125.330
G1 F1800 X85.188 Y94.522 E42.32016
G0 F9000 X85.496 Y94.264
G1 F1800 X116.255 Y125.023 E45.93719
G0 F9000 X116.507 Y124.709
G1 F1800 X85.810 Y94.012 E49.54692
G0 F9000 X86.127 Y93.764
G1 F1800 X116.754 Y124.391 E53.14842
G0 F9000 X116.995 Y124.066
G1 F1800 X86.451 Y93.522 E56.74016
G0 F9000 X86.780 Y93.285
G1 F1800 X117.233 Y123.738 E60.32120
G0 F9000 X117.464 Y123.404
G1 F1800 X87.114 Y93.054 E63.89013
G0 F9000 X87.454 Y92.828
G1 F1800 X117.690 Y123.064 E67.44565
G0 F9000 X117.910 Y122.718
G1 F1800 X87.800 Y92.609 E70.98629
G0 F9000 X88.152 Y92.394
G1 F1800 X118.125 Y122.367 E74.51089
G0 F9000 X118.332 Y122.009
G1 F1800 X88.509 Y92.186 E78.01785
G0 F9000 X88.871 Y91.982
G1 F1800 X118.537 Y121.648 E81.50634
G0 F9000 X118.733 Y121.278
G1 F1800 X89.240 Y91.785 E84.97449
G0 F9000 X89.613 Y91.593
G1 F1800 X118.926 Y120.906 E88.42148
G0 F9000 X119.110 Y120.524
G1 F1800 X89.994 Y91.409 E91.84523
G0 F9000 X90.379 Y91.228
G1 F1800 X119.291 Y120.140 E95.24506
G0 F9000 X119.148 Y120.072
G0 X115.347 Y125.823
G0 X115.464 Y125.930
G1 F1800 X84.588 Y95.053 E98.87590
G0 F9000 X84.295 Y95.326
G1 F1800 X115.191 Y126.222 E102.50904
G0 F9000 X114.912 Y126.509
G1 F1800 X99.932 Y111.529 E104.27057
G0 F9000 X99.233 Y110.830
G1 F1800 X84.009 Y95.606 E106.06080
G0 F9000 X83.725 Y95.887
G1 F1800 X98.888 Y111.050 E107.84385
G0 F9000 X98.542 Y111.270
G1 F1800 X83.450 Y96.178 E109.61855
G0 F9000 X83.177 Y96.471
G1 F1800 X98.197 Y111.490 E111.38473
G0 F9000 X97.851 Y111.710
G1 F1800 X82.911 Y96.771 E113.14150
G0 F9000 X82.648 Y97.073
G1 F1800 X97.505 Y111.930 E114.88857
G0 F9000 X97.160 Y112.151
G1 F1800 X82.394 Y97.385 E116.62494
G0 F9000 X82.142 Y97.698
G1 F1800 X96.814 Y112.371 E118.35031
G0 F9000 X96.469 Y112.591
G1 F1800 X81.899 Y98.021 E120.06363
G0 F9000 X81.658 Y98.345
G1 F1800 X96.124 Y112.811 E121.76472
G0 F9000 X95.778 Y113.031
G1 F1800 X81.425 Y98.678 E123.45253
G0 F9000 X81.194 Y99.013
G1 F1800 X95.432 Y113.251 E125.12681
G0 F9000 X95.087 Y113.472
G1 F1800 X80.972 Y99.356 E126.78668
G0 F9000 X80.751 Y99.702
G1 F1800 X94.741 Y113.692 E128.43180
G0 F9000 X94.395 Y113.912
G1 F1800 X80.542 Y100.058 E130.06086
G0 F9000 X80.334 Y100.416
G1 F1800 X94.050 Y114.132 E131.67376
G0 F9000 X93.705 Y114.352
G1 F1800 X80.134 Y100.782 E133.26955
G0 F9000 X79.937 Y101.150
G1 F1800 X93.359 Y114.572 E134.84787
G0 F9000 X93.014 Y114.793
G1 F1800 X79.749 Y101.528 E136.40773
G0 F9000 X79.565 Y101.909
G1 F1800 X92.668 Y115.013 E137.94860
G0 F9000 X92.322 Y115.232
G1 F1800 X79.388 Y102.299 E139.46948
G0 F9000 X79.217 Y102.693
G1 F1800 X91.976 Y115.452 E140.96984
G0 F9000 X91.631 Y115.673
G1 F1800 X79.055 Y103.096 E142.44874
G0 F9000 X78.898 Y103.505
G1 F1800 X91.286 Y115.893 E143.90548
G0 F9000 X90.940 Y116.113
G1 F1800 X78.748 Y103.921 E145.33916
G0 F9000 X78.605 Y104.344
G1 F1800 X90.595 Y116.333 E146.74904
G0 F9000 X90.249 Y116.553
G1 F1800 X78.468 Y104.772 E148.13439
G0 F9000 X78.342 Y105.212
G1 F1800 X89.903 Y116.773 E149.49388
G0 F9000 X89.558 Y116.994
G1 F1800 X78.218 Y105.653 E150.82743
G0 F9000 X78.109 Y106.110
G1 F1800 X89.212 Y117.214 E152.13312
G0 F9000 X88.867 Y117.434
G1 F1800 X78.003 Y106.570 E153.41064
G0 F9000 X77.908 Y107.041
G1 F1800 X88.521 Y117.654 E154.65865
G0 F9000 X88.176 Y117.874
G1 F1800 X77.822 Y107.521 E155.87614
G0 F9000 X77.743 Y108.007
G1 F1800 X87.830 Y118.094 E157.06230
G0 F9000 X87.485 Y118.315
G1 F1800 X77.679 Y108.509 E158.21541
G0 F9000 X77.621 Y109.017
G1 F1800 X87.139 Y118.535 E159.33465
G0 F9000 X86.793 Y118.755
G1 F1800 X77.576 Y109.537 E160.41856
G0 F9000 X77.546 Y110.073
G1 F1800 X86.448 Y118.975 E161.46537
G0 F9000 X86.102 Y119.195
G1 F1800 X77.525 Y110.617 E162.47401
G0 F9000 X77.518 Y111.176
G1 F1800 X85.757 Y119.415 E163.44286
G0 F9000 X85.412 Y119.636
G1 F1800 X77.528 Y111.752 E164.36995
G0 F9000 X77.553 Y112.343
G1 F1800 X85.066 Y119.856 E165.25343
G0 F9000 X84.720 Y120.075
G1 F1800 X77.592 Y112.948 E166.09157
G0 F9000 X77.654 Y113.575
G1 F1800 X84.375 Y120.296 E166.88190
G0 F9000 X84.029 Y120.516
G1 F1800 X77.737 Y114.224 E167.62179
G0 F9000 X77.845 Y114.897
G1 F1800 X83.683 Y120.736 E168.30836
G0 F9000 X83.338 Y120.956
G1 F1800 X77.979 Y115.597 E168.93853
G0 F9000 X78.143 Y116.326
G1 F1800 X82.993 Y121.176 E169.50886
G0 F9000 X82.647 Y121.396
G1 F1800 X78.344 Y117.094 E170.01480
G0 F9000 X78.594 Y117.909
G1 F1800 X82.302 Y121.617 E170.45083
G0 F9000 X81.956 Y121.837
G1 F1800 X78.896 Y118.776 E170.81072
G0 F9000 X79.270 Y119.717
G1 F1800 X81.610 Y122.057 E171.08589
G0 F9000 X81.265 Y122.277
G1 F1800 X79.741 Y120.754 E171.26504
G0 F9000 X80.386 Y121.963
G1 F1800 X80.919 Y122.497 E171.32778
G0 F9000 X80.836 Y122.364
G0 X99.594 Y110.374
G0 X100.594 Y112.543
G0 X100.450 Y112.612
G1 F1800 X114.629 Y126.791 E172.99512
G0 F9000 X114.339 Y127.067
G1 F1800 X100.967 Y113.694 E174.56762
G0 F9000 X101.484 Y114.778
G1 F1800 X114.046 Y127.340 E176.04482
G0 F9000 X113.745 Y127.605
G1 F1800 X102.001 Y115.860 E177.42588
G0 F9000 X102.519 Y116.944
G1 F1800 X113.441 Y127.866 E178.71022
G0 F9000 X113.130 Y128.121
G1 F1800 X103.036 Y118.026 E179.89726
G0 F9000 X103.552 Y119.109
G1 F1800 X112.816 Y128.373 E180.98663
G0 F9000 X112.495 Y128.617
G1 F1800 X104.070 Y120.192 E181.97735
G0 F9000 X104.587 Y121.275
G1 F1800 X112.169 Y128.857 E182.86893
G0 F9000 X111.838 Y129.092
G1 F1800 X105.105 Y122.358 E183.66074
G0 F9000 X105.621 Y123.441
G1 F1800 X111.503 Y129.322 E184.35236
G0 F9000 X111.160 Y129.545
G1 F1800 X106.139 Y124.524 E184.94279
G0 F9000 X106.656 Y125.606
G1 F1800 X110.814 Y129.765 E185.43180
G0 F9000 X110.459 Y129.976
G1 F1800 X107.174 Y126.690 E185.81815
G0 F9000 X107.690 Y127.772
G1 F1800 X110.101 Y130.183 E186.10167
G0 F9000 X109.735 Y130.382
G1 F1800 X108.208 Y128.856 E186.28117
G0 F9000 X108.725 Y129.938
G1 F1800 X109.362 Y130.575 E186.35608
G0 F9000 X109.290 Y130.433
G0 X119.316 Y119.682
G0 X119.462 Y119.744
G1 F1800 X90.773 Y91.056 E189.72962
G0 F9000 X91.170 Y90.887
G1 F1800 X119.631 Y119.348 E193.07642
G0 F9000 X119.787 Y118.938
G1 F1800 X91.579 Y90.730 E196.39346
G0 F9000 X91.990 Y90.576
G1 F1800 X119.942 Y118.528 E199.68040
G0 F9000 X119.794 Y118.477
G0 X119.818 Y103.898
G0 X119.969 Y103.847
G1 F1800 X103.902 Y87.780 E201.56976
G0 F9000 X103.605 Y88.048
G1 F1800 X120.251 Y104.694 E203.52720
G0 F9000 X120.480 Y105.489
G1 F1800 X103.307 Y88.316 E205.54662
G0 F9000 X103.010 Y88.585
G1 F1800 X120.666 Y106.241 E207.62283
G0 F9000 X120.819 Y106.959
G1 F1800 X102.712 Y88.853 E209.75201
G0 F9000 X102.415 Y89.121
G1 F1800 X120.942 Y107.648 E211.93065
G0 F9000 X121.041 Y108.313
G1 F1800 X102.117 Y89.389 E214.15596
G0 F9000 X101.564 Y89.402
G1 F1800 X121.116 Y108.954 E216.45513
G0 F9000 X121.168 Y109.571
G1 F1800 X100.945 Y89.349 E218.83314
G0 F9000 X100.346 Y89.316
G1 F1800 X121.203 Y110.172 E221.28570
G0 F9000 X121.222 Y110.757
G1 F1800 X99.762 Y89.296 E223.80929
G0 F9000 X99.191 Y89.292
G1 F1800 X121.226 Y111.326 E226.40038
G0 F9000 X121.212 Y111.878
G1 F1800 X98.640 Y89.306 E229.05468
G0 F9000 X98.099 Y89.331
G1 F1800 X121.188 Y112.420 E231.76977
G0 F9000 X121.150 Y112.948
G1 F1800 X97.568 Y89.366 E234.54283
G0 F9000 X97.054 Y89.417
G1 F1800 X121.100 Y113.463 E237.37045
G0 F9000 X121.042 Y113.971
G1 F1800 X96.548 Y89.477 E240.25076
G0 F9000 X96.051 Y89.546
G1 F1800 X120.971 Y114.466 E243.18116
G0 F9000 X120.891 Y114.951
G1 F1800 X95.568 Y89.628 E246.15895
G0 F9000 X95.088 Y89.714
G1 F1800 X120.803 Y115.429 E249.18284
G0 F9000 X120.703 Y115.894
G1 F1800 X94.625 Y89.816 E252.24941
G0 F9000 X94.166 Y89.923
G1 F1800 X120.596 Y116.353 E255.35738
G0 F9000 X120.480 Y116.803
G1 F1800 X93.716 Y90.039 E258.50462
G0 F9000 X93.273 Y90.162
G1 F1800 X120.356 Y117.245 E261.68937
G0 F9000 X120.225 Y117.680
G1 F1800 X92.836 Y90.291 E264.91011
G0 F9000 X92.411 Y90.431
G1 F1800 X120.086 Y118.106 E268.16448
G0 F9000 X119.938 Y118.055
